public/Currency.svg

<svg width="152" height="152" viewBox="0 0 152 152" fill="none" xmlns="http://www.w3.org/2000/svg">
<mask id="mask0_38_4413" style="mask-type:alpha" maskUnits="userSpaceOnUse" x="0" y="0" width="152" height="152">
<rect width="152" height="152" rx="32" fill="white"/>
</mask>
<g mask="url(#mask0_38_4413)">
<rect width="152" height="152" fill="#9747FF"/>
<path d="M112.875 76C112.875 96.7106 96.7108 112.875 76 112.875C55.2892 112.875 39.125 96.7106 39.125 76C39.125 55.2894 55.2892 39.125 76 39.125C96.7108 39.125 112.875 55.2894 112.875 76Z" stroke="white" stroke-width="6" stroke-miterlimit="10" stroke-linecap="round" stroke-linejoin="round"/>
</g>
<path fill-rule="evenodd" clip-rule="evenodd" d="M64.125 54.25C65.1529 54.25 66.1091 54.7763 66.6592 55.6445L73.6924 66.75H85.5V57.25C85.5 55.5931 86.8431 54.25 88.5 54.25C90.1569 54.25 91.5 55.5931 91.5 57.25V66.75H97.875L98.0293 66.7539C99.6144 66.8342 100.875 68.1449 100.875 69.75C100.875 71.3551 99.6144 72.6658 98.0293 72.7461L97.875 72.75H91.5V79.25H97.875L98.0293 79.2539C99.6144 79.3342 100.875 80.6449 100.875 82.25C100.875 83.8551 99.6144 85.1658 98.0293 85.2461L97.875 85.25H91.5V94.75C91.5 96.3551 90.2394 97.6658 88.6543 97.7461L88.5 97.75H87.875C86.9112 97.75 86.0103 97.2872 85.4482 96.5137L85.3408 96.3555L78.3076 85.25H66.5V94.75C66.5 96.4069 65.1569 97.75 63.5 97.75C61.8431 97.75 60.5 96.4069 60.5 94.75V85.25H54.125C52.4681 85.25 51.125 83.9069 51.125 82.25C51.125 80.5931 52.4681 79.25 54.125 79.25H60.5V72.75H54.125C52.4681 72.75 51.125 71.4069 51.125 69.75C51.125 68.0931 52.4681 66.75 54.125 66.75H60.5V57.25C60.5 55.5931 61.8431 54.25 63.5 54.25H64.125ZM85.5 85.3936V85.25H85.4092L85.5 85.3936ZM81.6094 79.25H85.5V72.75H77.4922L81.6094 79.25ZM66.5 79.25H74.5068L70.3906 72.75H66.5V79.25ZM66.5 66.75H66.5898L66.5 66.6074V66.75Z" fill="white"/>
</svg>

<svg xmlns="http://www.w3.org/2000/svg" width="152" height="152" fill="none"><mask id="a" width="152" height="152" x="0" y="0" maskUnits="userSpaceOnUse" style="mask-type:alpha"><rect width="152" height="152" fill="#fff" rx="32"/></mask><g mask="url(#a)"><path fill="#9747FF" d="M0 0h152v152H0z"/><path stroke="#fff" stroke-linecap="round" stroke-linejoin="round" stroke-miterlimit="10" stroke-width="6" d="M112.875 76c0 20.71-16.164 36.875-36.875 36.875S39.125 96.711 39.125 76 55.289 39.125 76 39.125 112.875 55.289 112.875 76"/></g><path fill="#fff" fill-rule="evenodd" d="M64.125 54.25a3 3 0 0 1 2.534 1.395l7.033 11.105H85.5v-9.5a3 3 0 1 1 6 0v9.5h6.375l.154.004a3 3 0 0 1 0 5.992l-.154.004H91.5v6.5h6.375l.154.004a3 3 0 0 1 0 5.992l-.154.004H91.5v9.5a3 3 0 0 1-2.846 2.996l-.154.004h-.625a3 3 0 0 1-2.427-1.236l-.107-.158-7.033-11.106H66.5v9.5a3 3 0 1 1-6 0v-9.5h-6.375a3 3 0 1 1 0-6H60.5v-6.5h-6.375a3 3 0 1 1 0-6H60.5v-9.5a3 3 0 0 1 3-3zM85.5 85.394v-.144h-.09zm-3.89-6.144h3.89v-6.5h-8.008zm-15.11 0h8.007l-4.116-6.5H66.5zm0-12.5h.09l-.09-.143z" clip-rule="evenodd"/></svg>
